X: 54
M: 2/4
L: 1/16
K: D
|:\
a4 f2d2 | A4 c2d2 | B2g2e2c2 | dcde d2d2 |\
a4 f2d2 | A4 c2d2 | B2g2e2c2 | d4 d4 ::\
(fd3) (af3) | (ec3) A4 | (BG3) (dB3) | (AF3) D4 |
(fd3) (af3) | (ec3) (Ac3) | B2d2 cBA^G | A4 A4 ::\
f2e2d2c2 | d4 H"_Fine."d4 :| [K:=f=c][K:Dm]\
|:\
(f4 e2).d2 | (d4 ^c2).d2| e2g2f2e2 | d^cde d2d2 |\
(f4 e2).d2 | (d4 ^c2).d2| e2g2f2e2 | d4 d4 :|


